public/files/perm/idevices/base/az-quiz-game/export/exequextmin.svg

<svg fill="none" height="24" viewBox="0 0 25 24" width="25" xmlns="http://www.w3.org/2000/svg" xmlns:xlink="http://www.w3.org/1999/xlink"><clipPath id="a"><path d="m.75 0h24v24h-24z"/></clipPath><g clip-path="url(#a)"><path d="m15.891 9.50768c.147.06.303.093.459.093h4.8c.663 0 1.2-.53698 1.2-1.19995s-.537-1.19994-1.2-1.19994h-1.902l5.151-5.15076c.468-.46798.468-1.226943 0-1.697921s-1.227-.467978-1.698 0l-5.151 5.150761v-1.90191c0-.66297-.537-1.19995-1.2-1.19995s-1.2.53698-1.2 1.19995v4.79977c0 .15599.033.31199.093.45898.123.29399.354.52798.648.64797zm-6.282 4.98572c-.147-.06-.303-.093-.459-.093h-4.8c-.663 0-1.2.537-1.2 1.2s.537 1.1999 1.2 1.1999h1.902l-5.151 5.1508c-.468.468-.468 1.2269 0 1.6979.234.234.54.351.849.351s.615-.117.849-.351l5.151-5.1507v1.9019c0 .6629.537 1.1999 1.2 1.1999s1.2-.537 1.2-1.1999v-4.7998c0-.156-.033-.312-.093-.459-.123-.294-.354-.528-.648-.648z" fill="#282573"/></g></svg>

<svg width="25" height="24" viewBox="0 0 25 24" fill="none" xmlns="http://www.w3.org/2000/svg">
<g clip-path="url(#clip0_290_2753)">
<path d="M15.891 9.50768C16.038 9.56768 16.194 9.60068 16.35 9.60068H21.15C21.813 9.60068 22.35 9.0637 22.35 8.40073C22.35 7.73776 21.813 7.20079 21.15 7.20079H19.248L24.399 2.05003C24.867 1.58205 24.867 0.823087 24.399 0.352109C23.931 -0.118869 23.172 -0.115869 22.701 0.352109L17.55 5.50287V3.60096C17.55 2.93799 17.013 2.40101 16.35 2.40101C15.687 2.40101 15.15 2.93799 15.15 3.60096V8.40073C15.15 8.55672 15.183 8.71272 15.243 8.85971C15.366 9.1537 15.597 9.38769 15.891 9.50768ZM9.609 14.4934C9.462 14.4334 9.306 14.4004 9.15 14.4004H4.35C3.687 14.4004 3.15 14.9374 3.15 15.6004C3.15 16.2634 3.687 16.8003 4.35 16.8003H6.252L1.101 21.9511C0.633 22.4191 0.633 23.178 1.101 23.649C1.335 23.883 1.641 24 1.95 24C2.259 24 2.565 23.883 2.799 23.649L7.95 18.4983V20.4002C7.95 21.0631 8.487 21.6001 9.15 21.6001C9.813 21.6001 10.35 21.0631 10.35 20.4002V15.6004C10.35 15.4444 10.317 15.2884 10.257 15.1414C10.134 14.8474 9.903 14.6134 9.609 14.4934Z" fill="#282573"/>
</g>
<defs>
<clipPath id="clip0_290_2753">
<rect width="24" height="24" fill="white" transform="translate(0.75)"/>
</clipPath>
</defs>
</svg>
